X:1
T:Sarajevo, 77.77
T:Sarajevo, 77.77
T:Phoebe Palmer Knapp, 1872
T:Public Domain Courtesy of the Cyber Hymnal™
C:Phoebe Palmer Knapp, 1872
Z:Public Domain
Z:Courtesy of the Cyber Hymnal™
%%score ( 1 2 ) ( 3 4 )
L:1/8
Q:1/4=95
M:3/4
K:C
V:1 treble 
V:2 treble 
V:3 bass 
V:4 bass 
V:1
 [CE][CE] [CE]2 [CE]2 | [DF][DF] [DF]4 | [B,D][B,D] [B,G]2 [DF]2 | [DF][CE] [CE]4 | %4
 [Ec][Ec] [Ec]2 [GB]2 | [GB][FA] (c2 A2) | [EG][EG] [EG]2 [CE]2 |"^riten." [B,D][DF] [CE]4 |] %8
V:2
 x6 | x6 | x6 | x6 | x6 | x2 F4 | x6 | x6 |] %8
V:3
 [C,G,][C,G,] [C,G,]2 [C,G,]2 | [G,,G,][G,,G,] [G,,G,]4 | [G,,G,][G,,G,] [G,,G,]2 [B,,G,]2 | %3
 [C,G,][C,G,] [C,G,]4 | [C,G,][C,G,] [C,G,]2 [E,C]2 | [F,C][F,C] (A,2 C2) | [G,C][G,C] [G,C]2 G,2 | %7
 [G,,G,][G,,G,] [C,G,]4 |] %8
V:4
 x6 | x6 | x6 | x6 | x6 | x2 F,4 | x4 G,2 | x6 |] %8

